symbolic/22x22/apps/gargoyle-house.svg

<svg xmlns="http://www.w3.org/2000/svg" width="22" height="22" version="1">
 <path style="fill:#4f4f4f" d="m 3.5344976,2.0000002 1.9311236,0 c 0.2960788,0 0.5344382,0.243839 0.5344382,0.5467242 l 0,4.8069136 c 0,0.3028851 -0.2383594,0.5467241 -0.5344382,0.5467241 l -1.9311236,0 c -0.2960788,0 -0.5344382,-0.243839 -0.5344382,-0.5467241 l 0,-4.8069136 c 0,-0.3028852 0.2383594,-0.5467242 0.5344382,-0.5467242 z"/>
 <path style="opacity:0.1;fill:#ffffff" d="m 3.5342388,2.0000001 c -0.2960786,0 -0.5341794,0.24399 -0.5341794,0.5468751 l 0,0.4999999 c 0,-0.3028851 0.2381008,-0.5468749 0.5341794,-0.5468749 l 1.931641,0 c 0.2960785,0 0.5341795,0.2439898 0.5341795,0.5468749 l 0,-0.4999999 c 0,-0.3028851 -0.238101,-0.5468751 -0.5341795,-0.5468751 l -1.931641,0 z"/>
 <path style="opacity:0.2" d="m 19.98825,20.601151 0,-11.040456 -1.46454,-1.4066189 C 18.164568,7.8091367 15.941364,5.9283174 15.451673,5.8379306 L 11.135554,2.7772308 6.2643808,5.9796602 C 5.8482845,6.253212 3.7287622,7.9390868 3.3813165,8.2958057 l -1.3700531,1.4066193 0,10.898726 c 0,0.497962 0.4008868,0.898849 0.8988494,0.898849 l 16.1792882,0 c 0.497962,0 0.898849,-0.400887 0.898849,-0.898849 z"/>
 <path style="fill:#e4e4e4" d="m 20.000059,20.101151 0,-11.040455 -1.466415,-1.4066196 C 18.174042,7.3091369 15.947992,5.4283176 15.457675,5.3379308 L 11.13603,2.277231 6.2586214,5.4796604 C 5.8419924,5.7532122 3.7197568,7.4390871 3.3718664,7.7958059 l -1.371807,1.4066191 0,10.898726 c 0,0.497962 0.4014,0.898849 0.9000001,0.898849 l 16.1999995,0 c 0.4986,0 0.9,-0.400887 0.9,-0.898849 z"/>
 <rect style="opacity:0.15" width="18" height="1" x="2" y="9"/>
 <rect style="fill:#956a42" width="5" height="8" x="4" y="11" rx=".75" ry=".75"/>
 <path style="fill:#956a42" d="m 13.250059,11 c -0.683851,0 -1.25,0.566149 -1.25,1.25 l 0,3.5 c 0,0.683851 0.566149,1.25 1.25,1.25 l 3.5,0 c 0.683851,0 1.25,-0.566149 1.25,-1.25 l 0,-3.5 c 0,-0.683851 -0.566149,-1.25 -1.25,-1.25 l -3.5,0 z"/>
 <path style="opacity:0.2" d="m 13.250059,12.5 c -0.147149,0 -0.25,0.102851 -0.25,0.250001 l 0,3.499999 c 0,0.147149 0.102851,0.25 0.25,0.25 l 3.499999,0 c 0.147149,0 0.250001,-0.102851 0.250001,-0.25 l 0,-3.499999 C 17.000059,12.602851 16.897207,12.5 16.750058,12.5 l -3.499999,0 z"/>
 <path style="fill:#c2eeff" d="m 13.250059,12.000001 c -0.147149,0 -0.25,0.102851 -0.25,0.25 l 0,3.499999 c 0,0.147149 0.102851,0.25 0.25,0.25 l 3.499999,0 c 0.147149,0 0.250001,-0.102851 0.250001,-0.25 l 0,-3.499999 c 0,-0.147149 -0.102852,-0.25 -0.250001,-0.25 l -3.499999,0 z"/>
 <circle style="opacity:0.2" cx="7.5" cy="16" r=".5"/>
 <circle style="fill:#ffffff" cx="7.5" cy="15.5" r=".5"/>
 <path style="opacity:0.05" d="M 4.0087064,7.3000648 C 3.7170117,7.5425005 3.4772192,7.7480483 3.3815795,7.8462406 l -1.3703161,1.4064024 0,-0.4866617 1.997443,0 z"/>
 <path style="opacity:0.15" d="m 6.0000594,5.9550499 c -0.462545,0.3403054 -1.349752,1.0392846 -2,1.5790336 l 0,1.4659165 2,0 z"/>
 <path style="opacity:0.05" d="m 8.0000594,4.6208204 -1.741211,1.1430682 c -0.046619,0.030609 -0.1743345,0.1290263 -0.258789,0.1911613 l 0,3.0449501 2,0 z"/>
 <path style="opacity:0.15" d="M 10.000059,3.3070728 8.0000594,4.6208204 8.0000594,9 10.000059,9 Z"/>
 <path style="opacity:0.05" d="m 11.135801,2.5609577 -1.135742,0.7461151 0,5.6929272 2,0 0,-5.8265452 z"/>
 <path style="opacity:0.15" d="m 12.000059,3.1734548 0,5.8265452 2,0 0,-4.4103896 z"/>
 <path style="opacity:0.05" d="m 14.000059,4.5896104 0,4.4103896 2,0 0,-3.0868884 C 15.764502,5.7568936 15.565288,5.6422334 15.458067,5.6224682 Z"/>
 <path style="opacity:0.15" d="m 16.000059,5.9131116 0,3.0868884 2,0 0,-1.5302871 c -0.567143,-0.4823575 -1.41325,-1.1674779 -2,-1.5566013 z"/>
 <path style="opacity:0.05" d="m 17.990807,7.2356942 0,1.5302871 1.997443,0 0,0.3452417 -1.464922,-1.4073781 C 18.438348,7.6222254 18.23686,7.445231 17.990807,7.2356942 Z"/>
 <path style="fill:none;stroke:#5d5d5d;stroke-width:2;stroke-linecap:round;stroke-linejoin:round" d="M 10.999757,2.0001597 2.0112634,8.9912103"/>
 <path style="fill:none;stroke:#5d5d5d;stroke-width:2;stroke-linecap:round;stroke-linejoin:round" d="M 11.011428,2.0001597 19.98825,8.9912103"/>
 <path style="opacity:0.1;fill:#ffffff;fill-rule:evenodd" d="m 10.976349,0.9926604 a 0.99882137,0.99882137 0 0 0 -0.07022,0.00585 0.99882137,0.99882137 0 0 0 -0.600793,0.2769892 L 1.3977909,8.2031566 A 0.99882137,0.99882137 0 0 0 1.0320482,9.251619 0.99882137,0.99882137 0 0 1 1.3977909,8.7025173 L 10.305333,1.7748622 a 0.99882137,0.99882137 0 0 1 0.600793,-0.2769892 0.99882137,0.99882137 0 0 1 0.07022,-0.00585 0.99882137,0.99882137 0 0 1 0.0195,9.738e-4 0.99882137,0.99882137 0 0 1 0.0098,-9.738e-4 0.99882137,0.99882137 0 0 1 0.04389,0.00195 0.99882137,0.99882137 0 0 1 0.03316,0.00195 0.99882137,0.99882137 0 0 1 0.624201,0.2799151 L 20.60176,8.7025178 A 0.99882137,0.99882137 0 0 1 20.96844,9.250647 0.99882137,0.99882137 0 0 0 20.601722,8.2031601 L 11.706859,1.2764768 a 0.99882137,0.99882137 0 0 0 -0.624201,-0.2799151 0.99882137,0.99882137 0 0 0 -0.03316,-0.00195 0.99882137,0.99882137 0 0 0 -0.04389,-0.00195 0.99882137,0.99882137 0 0 0 -0.0098,9.737e-4 0.99882137,0.99882137 0 0 0 -0.0195,-9.737e-4 z"/>
</svg>

<svg xmlns="http://www.w3.org/2000/svg" width="22" height="22" version="1"><path style="fill:#4f4f4f" d="M3.534 2h1.932A.54.54 0 0 1 6 2.547v4.807a.54.54 0 0 1-.534.546H3.534A.54.54 0 0 1 3 7.354V2.547A.54.54 0 0 1 3.534 2z"/><path style="opacity:.1;fill:#fff" d="M3.534 2A.54.54 0 0 0 3 2.547v.5a.54.54 0 0 1 .534-.547h1.932A.54.54 0 0 1 6 3.047v-.5A.54.54 0 0 0 5.466 2H3.534z"/><path style="opacity:.2" d="M19.988 20.601V9.561l-1.464-1.407c-.36-.345-2.583-2.226-3.072-2.316l-4.316-3.06L6.264 5.98c-.416.273-2.535 1.96-2.883 2.316l-1.37 1.406v10.9c0 .497.401.898.9.898h16.178c.498 0 .9-.4.9-.899z"/><path style="fill:#e4e4e4" d="M20 20.101V9.061l-1.466-1.407c-.36-.345-2.586-2.226-3.076-2.316l-4.322-3.06L6.259 5.48c-.417.273-2.54 1.96-2.887 2.316L2 9.202v10.9c0 .497.401.898.9.898h16.2c.499 0 .9-.4.9-.899z"/><path style="opacity:.15" d="M2 9h18v1H2z"/><rect style="fill:#956a42" width="5" height="8" x="4" y="11" rx=".75" ry=".75"/><path style="fill:#956a42" d="M13.25 11c-.684 0-1.25.566-1.25 1.25v3.5c0 .684.566 1.25 1.25 1.25h3.5c.684 0 1.25-.566 1.25-1.25v-3.5c0-.684-.566-1.25-1.25-1.25h-3.5z"/><path style="opacity:.2" d="M13.25 12.5a.24.24 0 0 0-.25.25v3.5c0 .147.103.25.25.25h3.5a.24.24 0 0 0 .25-.25v-3.5a.24.24 0 0 0-.25-.25h-3.5z"/><path style="fill:#c2eeff" d="M13.25 12a.24.24 0 0 0-.25.25v3.5c0 .147.103.25.25.25h3.5a.24.24 0 0 0 .25-.25v-3.5a.24.24 0 0 0-.25-.25h-3.5z"/><circle style="opacity:.2" cx="7.5" cy="16" r=".5"/><circle style="fill:#fff" cx="7.5" cy="15.5" r=".5"/><path style="opacity:.05" d="M4.009 7.3c-.292.243-.532.448-.627.546l-1.37 1.407v-.487h1.997z"/><path style="opacity:.15" d="M6 5.955c-.462.34-1.35 1.04-2 1.58V9h2z"/><path style="opacity:.05" d="M8 4.62 6.26 5.765c-.047.03-.174.129-.259.191V9h2z"/><path style="opacity:.15" d="M10 3.307 8 4.621V9h2z"/><path style="opacity:.05" d="M11.136 2.561 10 3.307V9h2V3.173z"/><path style="opacity:.15" d="M12 3.173V9h2V4.59z"/><path style="opacity:.05" d="M14 4.59V9h2V5.913c-.235-.156-.435-.27-.542-.29z"/><path style="opacity:.15" d="M16 5.913V9h2V7.47c-.567-.483-1.413-1.168-2-1.557z"/><path style="opacity:.05" d="M17.99 7.236v1.53h1.998v.345l-1.465-1.407a15.537 15.537 0 0 0-.532-.468z"/><path style="fill:none;stroke:#5d5d5d;stroke-width:2;stroke-linecap:round;stroke-linejoin:round" d="M11 2 2.01 8.991M11.011 2l8.977 6.991"/><path style="opacity:.1;fill:#fff;fill-rule:evenodd" d="M10.976.993a.999.999 0 0 0-.07.006.999.999 0 0 0-.6.276L1.397 8.203a.999.999 0 0 0-.366 1.049.999.999 0 0 1 .366-.55l8.907-6.927a.999.999 0 0 1 .601-.277.999.999 0 0 1 .07-.006.999.999 0 0 1 .02.001.999.999 0 0 1 .01-.001.999.999 0 0 1 .044.002.999.999 0 0 1 .033.002.999.999 0 0 1 .624.28l8.895 6.927a.999.999 0 0 1 .366.548.999.999 0 0 0-.366-1.048l-8.895-6.927a.999.999 0 0 0-.624-.28.999.999 0 0 0-.034-.001.999.999 0 0 0-.043-.002.999.999 0 0 0-.01 0 .999.999 0 0 0-.02 0z"/></svg>
